img/sponsors/panic.svg

<svg height="230" preserveAspectRatio="xMidYMid" viewBox="0 0 223 230" width="223" xmlns="http://www.w3.org/2000/svg"><g fill-rule="evenodd"><path d="m211.241 115.09c9.643-8.634 13.846-22.426 9.591-35.513-4.168-12.821-16.115-21.659-28.681-23.272 0 0-142.713-4.492-142.713-4.492s-20.193 89.123-20.193 89.123 1.538 32.529 1.235 32.529c-2.471 12.487 1.957 26.549 12.957 34.53 11.155 8.092 25.603 8.382 36.824 1.914 5.252 11.818 17.103 20.068 30.897 20.076 13.795.005 25.656-8.232 30.92-20.042 11.212 6.479 25.661 6.204 36.826-1.876 11.164-8.082 15.905-21.7 13.204-34.344 12.889-1.331 24.419-10.024 28.688-23.108 4.269-13.085.08-26.882-9.555-35.525z" fill="#1696c2"/><path d="m192.146 56.296c2.345-12.429-2.233-26.349-13.144-34.283-11.154-8.109-25.598-8.399-36.812-1.919-5.251-11.836-17.098-20.101-30.888-20.108-13.787-.006-25.644 8.244-30.908 20.077-11.208-6.493-25.652-6.218-36.813 1.88-11.159 8.095-15.898 21.736-13.199 34.4-12.885 1.334-24.41 10.043-28.678 23.15-4.267 13.106-.08 26.926 9.552 35.586-9.642 8.65-13.843 22.466-9.587 35.577 4.186 12.905 16.225 21.452 28.863 23.005 0 0 51.248-89.417 51.248-89.417s110.366-27.948 110.366-27.948z" fill="#71d6ea"/><path d="m175.156 145.281h-105s-5.17 28.013-5.17 28.013-33.331 0-34.812 0c0 0 22.365-116.994 22.365-116.994h139.613s-16.996 88.981-16.996 88.981zm-92-60s-6 29-6 29h69s6-29 6-29z" fill="#fff"/></g></svg>

<svg xmlns="http://www.w3.org/2000/svg" xmlns:xlink="http://www.w3.org/1999/xlink" preserveAspectRatio="xMidYMid" width="223" height="230" viewBox="0 0 223 230">
  <defs>
    <style>

      .cls-3 {
        fill: #1696c2;
      }

      .cls-4 {
        fill: #71d6ea;
      }

      .cls-5 {
        fill: #ffffff;
      }
    </style>
  </defs>
  <g id="big-logosvg">
    <path d="M211.241,115.090 C220.884,106.456 225.087,92.664 220.832,79.577 C216.664,66.756 204.717,57.918 192.151,56.305 C192.151,56.305 49.438,51.813 49.438,51.813 C49.438,51.813 29.245,140.936 29.245,140.936 C29.245,140.936 30.783,173.465 30.480,173.465 C28.009,185.952 32.437,200.014 43.437,207.995 C54.592,216.087 69.040,216.377 80.261,209.909 C85.513,221.727 97.364,229.977 111.158,229.985 C124.953,229.990 136.814,221.753 142.078,209.943 C153.290,216.422 167.739,216.147 178.904,208.067 C190.068,199.985 194.809,186.367 192.108,173.723 C204.997,172.392 216.527,163.699 220.796,150.615 C225.065,137.530 220.876,123.733 211.241,115.090 Z" id="path-1" class="cls-3" fill-rule="evenodd"/>
    <path d="M192.146,56.296 C194.491,43.867 189.913,29.947 179.002,22.013 C167.848,13.904 153.404,13.614 142.190,20.094 C136.939,8.258 125.092,-0.007 111.302,-0.014 C97.515,-0.020 85.658,8.230 80.394,20.063 C69.186,13.570 54.742,13.845 43.581,21.943 C32.422,30.038 27.683,43.679 30.382,56.343 C17.497,57.677 5.972,66.386 1.704,79.493 C-2.563,92.599 1.624,106.419 11.256,115.079 C1.614,123.729 -2.587,137.545 1.669,150.656 C5.855,163.561 17.894,172.108 30.532,173.661 C30.532,173.661 81.780,84.244 81.780,84.244 C81.780,84.244 192.146,56.296 192.146,56.296 Z" id="path-2" class="cls-4" fill-rule="evenodd"/>
    <path d="M175.156,145.281 C175.156,145.281 70.156,145.281 70.156,145.281 C70.156,145.281 64.986,173.294 64.986,173.294 C64.986,173.294 31.655,173.294 30.174,173.294 C30.174,173.294 52.539,56.300 52.539,56.300 C52.539,56.300 192.152,56.300 192.152,56.300 C192.152,56.300 175.156,145.281 175.156,145.281 ZM83.156,85.281 C83.156,85.281 77.156,114.281 77.156,114.281 C77.156,114.281 146.156,114.281 146.156,114.281 C146.156,114.281 152.156,85.281 152.156,85.281 C152.156,85.281 83.156,85.281 83.156,85.281 Z" id="path-3" class="cls-5" fill-rule="evenodd"/>
  </g>
</svg>
